X: 2
T: O Gin I Were Where Gadie Rins
T:The Back o' Benachie
M: 2/4
L: 1/8
K: D
d/B/ | AA/B/ A/B/d/e/ | ff fe/d/ | ff fe/d/ | ee f/e/d/B/ |
AA/B/ A/B/d/e/ | ff fe/d/ | aA AB/c/ | d3 :|
B | AF F>A | GE EG | FD FA | dc/d/ e/d/c/B/ |
AF F>A | GE EG | FD FA | d2 d :||
